X:210
T:Maids of Tullyknockbrine
Z: id:dc-reel-192
M:C
L:1/8
K:G Major
D|G2dc BDGB|DGBd eAAB|G2dc Bcde|dBcA BGG:|!
d|egfg egfe|defg afdf|egfg efga|bgaf geed|!
efga bge^c|defg afdB|G2dc Bcde|dBcA BGG|]!

